src/next/cmd/sc_renamemasterpage.svg

<svg height="16" viewBox="0 0 4.2333333 4.2333335" width="16" xmlns="http://www.w3.org/2000/svg" xmlns:xlink="http://www.w3.org/1999/xlink"><linearGradient id="a" gradientTransform="matrix(-.84615404 0 0 -.80489557 31.261552 244.46168)" gradientUnits="userSpaceOnUse" x1="0" x2="31.942419" y1="294.88333" y2="274.79138"><stop offset="0" stop-color="#5499ff"/><stop offset=".11366145" stop-color="#5a9cff"/><stop offset=".20296694" stop-color="#80b3ff"/><stop offset=".21468808" stop-color="#7aafff"/><stop offset=".2560246" stop-color="#80b3ff"/><stop offset=".5313" stop-color="#80b3ff"/><stop offset=".8449" stop-color="#80b3ff"/><stop offset="1" stop-color="#80b3ff"/></linearGradient><filter id="b" color-interpolation-filters="sRGB" height="1.0264" width="1.022" x="-.011" y="-.0132"><feGaussianBlur stdDeviation=".1200918"/></filter><filter id="c" color-interpolation-filters="sRGB" height="1.132" width="1.11" x="-.055" y="-.066"><feGaussianBlur stdDeviation=".600459"/></filter><filter id="d" color-interpolation-filters="sRGB" height="1.0528" width="1.044" x="-.022" y="-.0264"><feGaussianBlur stdDeviation=".2401836"/></filter><g transform="scale(.125)"><path d="m2.4287318 271.26587h29.0092052v21.83486h-29.0092052z" fill="#a4a4a4" filter="url(#c)" transform="matrix(-1.09448 0 0 -1.09448 35.466532 325.77731)"/><path d="m1.8599554 271.26588h30.1467556v21.83486h-30.1467556z" fill="#949494" filter="url(#b)" transform="matrix(-1.0531812 0 0 -1.0531812 34.767212 314.12347)"/><path d="m1.7325692 271.26588h30.4015288v21.83486h-30.4015288z" fill="#313131" filter="url(#d)" transform="matrix(-1.0080161 0 0 -1.0080161 34.002412 301.37864)"/><path d="m31.750012 27.51664h-29.63334v-21.16664h29.63334z" fill="#80b3ff" opacity=".99"/><path d="m28.575012 24.34164h-23.28334v-14.81666h23.28334z" fill="url(#a)" opacity=".99"/><g fill="#eee" transform="translate(0 -263.13332)"><path d="m29.633342 288.5333h-1.05833v-16.93333h1.05833z"/><path d="m5.291682 288.5333h-1.05834v-16.93333h1.05834z"/><path d="m28.575002 287.47498v1.05833h-23.28333v-1.05833z"/><path d="m28.575002 271.59995v1.05833h-23.28333v-1.05833z"/><path d="m28.574996 276.89166v1.05833h-23.2833295v-1.05833z"/></g></g><g stroke-width="2.670413" transform="matrix(.04680924 0 0 .04680924 -.15433 -1.913362)"><rect fill="#747474" height="28.261835" ry=".908416" width="67.828499" x="3.296988" y="46.528145"/><rect fill="#fff" height="16.957121" ry=".706546" width="56.523743" x="8.949365" y="52.180481"/><path d="m31.558863 40.875734v11.304749h5.652374v16.957123h-5.652374v16.957123h28.261872v-16.957123h-5.652375v-16.957123h5.652375v-11.304749z" fill="#fff" fill-opacity=".870588"/><path d="m37.211234 40.875761 16.957124-.000028.000001 5.652346-16.957124.000028z"/><path d="m37.211234 74.789999 16.957124-.000019v5.652365l-16.957124.000019z"/><path d="m48.515989 46.528108v28.26188l-5.652377-.000007v-28.261878z" stroke-width="2.437743"/></g></svg>

<?xml version="1.0" encoding="UTF-8" standalone="no"?>
<svg
   xmlns:dc="http://purl.org/dc/elements/1.1/"
   xmlns:cc="http://creativecommons.org/ns#"
   xmlns:rdf="http://www.w3.org/1999/02/22-rdf-syntax-ns#"
   xmlns:svg="http://www.w3.org/2000/svg"
   xmlns="http://www.w3.org/2000/svg"
   xmlns:xlink="http://www.w3.org/1999/xlink"
   xmlns:sodipodi="http://sodipodi.sourceforge.net/DTD/sodipodi-0.dtd"
   xmlns:inkscape="http://www.inkscape.org/namespaces/inkscape"
   height="16"
   viewBox="0 0 4.2333333 4.2333335"
   width="16"
   version="1.1"
   id="svg129"
   sodipodi:docname="sc_renamemasterpage.svg"
   inkscape:version="0.92.3 (2405546, 2018-03-11)"
   inkscape:export-filename="/home/rizmut/Dokumen/Rizmut/Github/libreoffice-style-karasa-jaga/build/next/cmd/sc_renamemasterpage.png"
   inkscape:export-xdpi="96"
   inkscape:export-ydpi="96">
  <metadata
     id="metadata135">
    <rdf:RDF>
      <cc:Work
         rdf:about="">
        <dc:format>image/svg+xml</dc:format>
        <dc:type
           rdf:resource="http://purl.org/dc/dcmitype/StillImage" />
        <dc:title></dc:title>
      </cc:Work>
    </rdf:RDF>
  </metadata>
  <defs
     id="defs133">
    <filter
       style="color-interpolation-filters:sRGB"
       id="j-3"
       height="1.072142"
       width="1.071866"
       x="-0.035932999"
       y="-0.036070999">
      <feGaussianBlur
         stdDeviation=".66434216"
         id="feGaussianBlur77" />
    </filter>
    <radialGradient
       id="k-6"
       cx="-55.685837"
       cy="-347.11612"
       gradientTransform="matrix(-0.91762954,-0.24587809,0.26650439,-0.99460792,-14.509941,-705.18366)"
       gradientUnits="userSpaceOnUse"
       r="22.14249">
      <stop
         offset="0"
         stop-color="#82c133"
         id="stop80" />
      <stop
         offset="1"
         stop-color="#72b028"
         id="stop82" />
    </radialGradient>
    <linearGradient
       id="l-7"
       gradientUnits="userSpaceOnUse"
       x1="328.12448"
       x2="336.98077"
       y1="120.81158"
       y2="87.759453">
      <stop
         offset="0"
         stop-color="#96ff00"
         id="stop85" />
      <stop
         offset="1"
         stop-color="#609800"
         id="stop87" />
    </linearGradient>
    <clipPath
       id="m-5">
      <circle
         cx="343.91208"
         cy="92.325096"
         r="36"
         transform="matrix(0.86602539,0.50000002,0.49999965,-0.86602561,0,0)"
         id="circle90" />
    </clipPath>
    <filter
       id="n-3">
      <feGaussianBlur
         stdDeviation="2.8805897"
         id="feGaussianBlur93" />
    </filter>
    <radialGradient
       id="o-5"
       cx="343.99899"
       cy="92"
       gradientTransform="matrix(0.46130197,0,0,0.46130166,-219.03541,-372.17548)"
       gradientUnits="userSpaceOnUse"
       r="36">
      <stop
         offset="0"
         stop-color="#e5ff00"
         id="stop96" />
      <stop
         offset="1"
         stop-color="#bff500"
         stop-opacity="0"
         id="stop98" />
    </radialGradient>
    <linearGradient
       id="p-6"
       gradientTransform="matrix(0,0.51133072,-0.51133109,0,76.138665,324.51289)"
       gradientUnits="userSpaceOnUse"
       x1="-80.00296"
       x2="-45.096584"
       y1="-131.93112"
       y2="-131.93112">
      <stop
         offset="0"
         stop-color="#fff"
         id="stop101" />
      <stop
         offset="1"
         stop-color="#fff"
         stop-opacity="0"
         id="stop103" />
    </linearGradient>
    <linearGradient
       id="q-2"
       gradientUnits="userSpaceOnUse"
       x1="122.00004"
       x2="122.00004"
       y1="61.999996"
       y2="9.9328432">
      <stop
         offset="0"
         stop-color="#314d00"
         stop-opacity="0"
         id="stop106" />
      <stop
         offset=".5"
         stop-color="#194d00"
         id="stop108" />
      <stop
         offset="1"
         stop-color="#2d4d00"
         stop-opacity="0"
         id="stop110" />
    </linearGradient>
    <filter
       id="r">
      <feGaussianBlur
         stdDeviation="1.04"
         id="feGaussianBlur113" />
    </filter>
    <radialGradient
       id="a-3"
       cx="-32"
       cy="9.6000004"
       gradientTransform="matrix(0.11920158,0.11920158,-0.59600795,0.59600795,13.01637,-1.457733)"
       gradientUnits="userSpaceOnUse"
       r="5.5999999">
      <stop
         offset="0"
         stop-color="#a50606"
         id="stop2-6" />
      <stop
         offset="1"
         stop-color="#f20909"
         id="stop4-7" />
    </radialGradient>
  </defs>
  <sodipodi:namedview
     pagecolor="#ffffff"
     bordercolor="#666666"
     borderopacity="1"
     objecttolerance="10"
     gridtolerance="10"
     guidetolerance="10"
     inkscape:pageopacity="0"
     inkscape:pageshadow="2"
     inkscape:window-width="1366"
     inkscape:window-height="714"
     id="namedview131"
     showgrid="true"
     inkscape:zoom="20.85965"
     inkscape:cx="0.58321264"
     inkscape:cy="10.3829"
     inkscape:window-x="0"
     inkscape:window-y="28"
     inkscape:window-maximized="1"
     inkscape:current-layer="g925">
    <inkscape:grid
       type="xygrid"
       id="grid899" />
  </sodipodi:namedview>
  <linearGradient
     id="a"
     gradientTransform="matrix(-0.84615404,0,0,-0.80489557,31.261552,244.46168)"
     gradientUnits="userSpaceOnUse"
     x1="0"
     x2="31.942419"
     y1="294.88333"
     y2="274.79138">
    <stop
       offset="0"
       stop-color="#5499ff"
       id="stop2" />
    <stop
       offset=".11366145"
       stop-color="#5a9cff"
       id="stop4" />
    <stop
       offset=".20296694"
       stop-color="#80b3ff"
       id="stop6" />
    <stop
       offset=".21468808"
       stop-color="#7aafff"
       id="stop8" />
    <stop
       offset=".2560246"
       stop-color="#80b3ff"
       id="stop10" />
    <stop
       offset=".5313"
       stop-color="#80b3ff"
       id="stop12" />
    <stop
       offset=".8449"
       stop-color="#80b3ff"
       id="stop14" />
    <stop
       offset="1"
       stop-color="#80b3ff"
       id="stop16" />
  </linearGradient>
  <filter
     id="b"
     height="1.0264"
     width="1.022"
     x="-0.011"
     y="-0.0132"
     style="color-interpolation-filters:sRGB">
    <feGaussianBlur
       stdDeviation=".1200918"
       id="feGaussianBlur19" />
  </filter>
  <filter
     id="c"
     height="1.132"
     width="1.11"
     x="-0.055"
     y="-0.066"
     style="color-interpolation-filters:sRGB">
    <feGaussianBlur
       stdDeviation=".600459"
       id="feGaussianBlur22" />
  </filter>
  <filter
     id="d"
     height="1.0528001"
     width="1.044"
     x="-0.022"
     y="-0.0264"
     style="color-interpolation-filters:sRGB">
    <feGaussianBlur
       stdDeviation=".2401836"
       id="feGaussianBlur25" />
  </filter>
  <radialGradient
     id="e"
     cx="84.903702"
     cy="-130.14005"
     gradientTransform="matrix(0.30794145,0.30794145,-0.30794145,0.30794145,46.491338,107.57052)"
     gradientUnits="userSpaceOnUse"
     r="57.039597"
     xlink:href="#f" />
  <linearGradient
     id="f">
    <stop
       offset="0"
       stop-color="#011701"
       id="stop29" />
    <stop
       offset=".80671918"
       stop-color="#145703"
       id="stop31" />
    <stop
       offset="1"
       stop-color="#2fa207"
       stop-opacity=".384314"
       id="stop33" />
  </linearGradient>
  <radialGradient
     id="g"
     cx="43.084476"
     cy="-121.92532"
     gradientTransform="matrix(0.30347528,0.31234377,-0.3628951,0.35259129,39.983519,112.82479)"
     gradientUnits="userSpaceOnUse"
     r="57.039597"
     xlink:href="#f" />
  <radialGradient
     id="h"
     cx="51.991096"
     cy="-78.028419"
     gradientTransform="matrix(0.28232256,0.33158686,-0.56115095,0.47778001,28.065755,119.5934)"
     gradientUnits="userSpaceOnUse"
     r="57.039597"
     xlink:href="#f" />
  <linearGradient
     id="i"
     gradientTransform="scale(1.0975951,0.9110828)"
     gradientUnits="userSpaceOnUse"
     x1="26.091133"
     x2="31.500689"
     xlink:href="#j"
     y1="14.856744"
     y2="14.856744" />
  <linearGradient
     id="j">
    <stop
       offset="0"
       stop-color="#fff"
       id="stop39" />
    <stop
       offset="1"
       stop-color="#fff"
       stop-opacity="0"
       id="stop41" />
  </linearGradient>
  <filter
     id="k"
     height="1.277481"
     width="1.279832"
     x="-0.139916"
     y="-0.138741">
    <feGaussianBlur
       stdDeviation=".28784801"
       id="feGaussianBlur44" />
  </filter>
  <linearGradient
     id="l"
     gradientUnits="userSpaceOnUse"
     x1="304.88663"
     x2="345.62039"
     y1="385.86127"
     y2="384.62384">
    <stop
       offset="0"
       stop-color="#765c44"
       id="stop47" />
    <stop
       offset="1"
       stop-color="#765c44"
       stop-opacity="0"
       id="stop49" />
  </linearGradient>
  <linearGradient
     id="m"
     gradientUnits="userSpaceOnUse"
     spreadMethod="reflect"
     x1="88.606247"
     x2="91.575104"
     y1="13.510336"
     y2="13.510336">
    <stop
       offset="0"
       stop-color="#c8ff87"
       id="stop52" />
    <stop
       offset="1"
       stop-color="#abff87"
       stop-opacity="0"
       id="stop54" />
  </linearGradient>
  <linearGradient
     id="n"
     gradientUnits="userSpaceOnUse"
     spreadMethod="reflect"
     x1="31.606251"
     x2="34.575108"
     y1="13.510336"
     y2="13.510336">
    <stop
       offset="0"
       stop-color="#fff"
       id="stop57" />
    <stop
       offset="1"
       stop-color="#790000"
       stop-opacity="0"
       id="stop59" />
  </linearGradient>
  <radialGradient
     id="o"
     cx="50.424522"
     cy="-81.945961"
     gradientTransform="matrix(0.30794145,0.30794145,-0.30794145,0.30794145,46.491337,107.57052)"
     gradientUnits="userSpaceOnUse"
     r="50.15279">
    <stop
       offset="0"
       stop-color="#7ae91e"
       stop-opacity=".996078"
       id="stop62" />
    <stop
       offset="1"
       stop-color="#62c916"
       id="stop64" />
  </radialGradient>
  <filter
     id="p"
     height="1.024"
     width="1.024"
     x="-0.012"
     y="-0.012"
     style="color-interpolation-filters:sRGB">
    <feGaussianBlur
       stdDeviation=".28192153"
       id="feGaussianBlur67" />
  </filter>
  <linearGradient
     id="q"
     gradientUnits="userSpaceOnUse"
     x1="84.745605"
     x2="97.636749"
     xlink:href="#j"
     y1="48.278454"
     y2="110.57732" />
  <g
     id="g925"
     transform="scale(0.125)">
    <g
       id="g1057">
      <path
         style="fill:#a4a4a4;filter:url(#c)"
         inkscape:connector-curvature="0"
         id="path71"
         transform="matrix(-1.09448,0,0,-1.09448,35.466532,325.77731)"
         d="M 2.4287318,271.26587 H 31.437937 v 21.83486 H 2.4287318 Z" />
      <path
         style="fill:#949494;filter:url(#b)"
         inkscape:connector-curvature="0"
         id="path73"
         transform="matrix(-1.0531812,0,0,-1.0531812,34.767212,314.12347)"
         d="M 1.8599554,271.26588 H 32.006711 v 21.83486 H 1.8599554 Z" />
      <path
         style="fill:#313131;filter:url(#d)"
         inkscape:connector-curvature="0"
         id="path75"
         transform="matrix(-1.0080161,0,0,-1.0080161,34.002412,301.37864)"
         d="M 1.7325692,271.26588 H 32.134098 v 21.83486 H 1.7325692 Z" />
      <path
         style="opacity:0.98999999;fill:#80b3ff"
         inkscape:connector-curvature="0"
         id="path77"
         d="M 31.750012,27.51664 H 2.116672 V 6.35 h 29.63334 z" />
      <path
         inkscape:connector-curvature="0"
         style="opacity:0.98999999;fill:url(#a)"
         id="path79"
         d="M 28.575012,24.34164 H 5.291672 V 9.52498 h 23.28334 z" />
      <g
         style="fill:#eeeeee"
         id="g91"
         transform="translate(0,-263.13332)">
        <path
           inkscape:connector-curvature="0"
           id="path81"
           d="m 29.633342,288.5333 h -1.05833 v -16.93333 h 1.05833 z" />
        <path
           inkscape:connector-curvature="0"
           id="path83"
           d="m 5.291682,288.5333 h -1.05834 v -16.93333 h 1.05834 z" />
        <path
           inkscape:connector-curvature="0"
           id="path85"
           d="m 28.575002,287.47498 v 1.05833 H 5.291672 v -1.05833 z" />
        <path
           inkscape:connector-curvature="0"
           id="path87"
           d="m 28.575002,271.59995 v 1.05833 H 5.291672 v -1.05833 z" />
        <path
           inkscape:connector-curvature="0"
           id="path89"
           d="m 28.574996,276.89166 v 1.05833 H 5.2916665 v -1.05833 z" />
      </g>
    </g>
    <g
       transform="matrix(0.3744739,0,0,0.3744739,-1.2346369,-15.306895)"
       style="stroke-width:2.67041302"
       id="g72">
      <rect
         style="fill:#747474"
         height="28.261835"
         ry="0.90841597"
         width="67.828499"
         x="3.296988"
         y="46.528145"
         id="rect60" />
      <rect
         style="fill:#ffffff"
         height="16.957121"
         ry="0.70654601"
         width="56.523743"
         x="8.9493647"
         y="52.180481"
         id="rect62" />
      <path
         style="fill:#ffffff;fill-opacity:0.870588"
         inkscape:connector-curvature="0"
         d="m 31.558863,40.875734 v 11.304749 h 5.652374 V 69.137606 H 31.558863 V 86.094729 H 59.820735 V 69.137606 H 54.16836 V 52.180483 h 5.652375 V 40.875734 Z"
         id="path64" />
      <path
         inkscape:connector-curvature="0"
         d="m 37.211234,40.875761 16.957124,-2.8e-5 1e-6,5.652346 -16.957124,2.8e-5 z"
         id="path66" />
      <path
         inkscape:connector-curvature="0"
         d="m 37.211234,74.789999 16.957124,-1.9e-5 v 5.652365 l -16.957124,1.9e-5 z"
         id="path68" />
      <path
         style="stroke-width:2.43774295"
         inkscape:connector-curvature="0"
         d="m 48.515989,46.528108 v 28.26188 l -5.652377,-7e-6 V 46.528103 Z"
         id="path70" />
    </g>
  </g>
</svg>
